X:474
T:Muss i Denn
M:4/4
L:1/8
K:G
GA|B2 Bd c2 ce|d>e dc B4|d>e dc B2 Bd|c2 cB A2 d2|B6 GA|
B2 Bd c2 ce|d>e dc B4|d>e dc B2 Bd|c2 cB A2 d2|G6||
B2|A3 B c2 A2|B3 c d2 dd|e2 ef g2 fe|d6 GA|
B2 Bd c2 ce|d>e dc B4|d>e dc B2 Bd|c2 cB A2 d2|G6||
